packages/components/src/components/icon/wallet/ic-wallet-options-dark.svg

<svg width="24" height="24" viewBox="0 0 24 24" fill="none" xmlns="http://www.w3.org/2000/svg">
<path d="M4.5 0C2.01472 0 0 2.01472 0 4.5V4.63071L22.4358 1.08948C21.6478 0.4105 20.6218 0 19.5 0H4.5Z" fill="#ECECEE"/>
<path d="M22.899 1.55081L18.7833 24L19.1026 24H19.5C21.9853 24 24 21.9853 24 19.5V4.5C24 3.37182 23.5848 2.34061 22.899 1.55081Z" fill="#ECECEE"/>
<path d="M0 4.63071V19.5C0 21.9853 2.01472 24 4.5 24L19.1026 24L18.7833 24L22.899 1.55081C22.7559 1.3861 22.6011 1.23189 22.4358 1.08948L0 4.63071Z" fill="white"/>
<path d="M12.9375 14.25C12.9375 13.425 13.6125 12.75 14.4375 12.75H17.4375C18.2625 12.75 18.9375 13.425 18.9375 14.25V17.25C18.9375 18.075 18.2625 18.75 17.4375 18.75H14.4375C13.6125 18.75 12.9375 18.075 12.9375 17.25V14.25Z" fill="#EF8933"/>
<path d="M5.4375 14.25C5.4375 13.425 6.1125 12.75 6.9375 12.75H9.9375C10.7625 12.75 11.4375 13.425 11.4375 14.25V17.25C11.4375 18.075 10.7625 18.75 9.9375 18.75H6.9375C6.1125 18.75 5.4375 18.075 5.4375 17.25V14.25Z" fill="#4B6FA8"/>
<path d="M12.9375 6.75C12.9375 5.925 13.6125 5.25 14.4375 5.25H17.4375C18.2625 5.25 18.9375 5.925 18.9375 6.75V9.75C18.9375 10.575 18.2625 11.25 17.4375 11.25H14.4375C13.6125 11.25 12.9375 10.575 12.9375 9.75V6.75Z" fill="#76C0E3"/>
<path d="M5.4375 6.75C5.4375 5.925 6.1125 5.25 6.9375 5.25H9.9375C10.7625 5.25 11.4375 5.925 11.4375 6.75V9.75C11.4375 10.575 10.7625 11.25 9.9375 11.25H6.9375C6.1125 11.25 5.4375 10.575 5.4375 9.75V6.75Z" fill="#FF444F"/>
</svg>

<svg width="24" height="24" viewBox="0 0 24 24" fill="none" xmlns="http://www.w3.org/2000/svg"><path d="M4.5 0A4.5 4.5 0 0 0 0 4.5v.13l22.436-3.54A4.482 4.482 0 0 0 19.5 0h-15Zm18.399 1.55L18.783 24h.717a4.5 4.5 0 0 0 4.5-4.5v-15c0-1.128-.415-2.16-1.101-2.95Z" fill="#ECECEE"/><path d="M0 4.63V19.5A4.5 4.5 0 0 0 4.5 24h14.603-.32L22.9 1.55a4.533 4.533 0 0 0-.463-.46L0 4.63Z" fill="#fff"/><path d="M12.938 14.25c0-.825.675-1.5 1.5-1.5h3c.825 0 1.5.675 1.5 1.5v3c0 .825-.675 1.5-1.5 1.5h-3c-.825 0-1.5-.675-1.5-1.5v-3Z" fill="#EF8933"/><path d="M5.438 14.25c0-.825.675-1.5 1.5-1.5h3c.824 0 1.5.675 1.5 1.5v3c0 .825-.676 1.5-1.5 1.5h-3c-.825 0-1.5-.675-1.5-1.5v-3Z" fill="#4B6FA8"/><path d="M12.938 6.75c0-.825.675-1.5 1.5-1.5h3c.825 0 1.5.675 1.5 1.5v3c0 .825-.675 1.5-1.5 1.5h-3c-.825 0-1.5-.675-1.5-1.5v-3Z" fill="#76C0E3"/><path d="M5.438 6.75c0-.825.675-1.5 1.5-1.5h3c.824 0 1.5.675 1.5 1.5v3c0 .825-.676 1.5-1.5 1.5h-3c-.825 0-1.5-.675-1.5-1.5v-3Z" fill="#FF444F"/></svg>
